X: 31161
T: Paddy Fahey's
R: reel
M: 4/4
K: Gmajor
|:G2 BD GBdB|c2 ag fgdc|BG3 BcdB|cBAG FDcA|
G2 BD GBdB|c2 ag fgdc|BG3 BcdB|1 cAFA G2 BA:|2 cAFA G2 Bc||
|:dgfa gdBG|FGAB c2 Bc|dffg a3g|fdAd BdAd|
g2 fa gdBG|FGAB c2 Bc|dg3 defd|1 cAFA G2 Bc:|2 cAFA G2 DB||

